svgs/light/money-bill-1.svg

<svg xmlns="http://www.w3.org/2000/svg" viewBox="0 0 576 512"><!-- Font Awesome Pro 6.0.0-alpha2 by @fontawesome - https://fontawesome.com License - https://fontawesome.com/license (Commercial License) --><path d="M288 208C279.156 208 272 215.156 272 224V288C272 296.844 279.156 304 288 304S304 296.844 304 288V224C304 215.156 296.844 208 288 208ZM512 64H64C28.654 64 0 92.652 0 128V384C0 419.346 28.654 448 64 448H512C547.348 448 576 419.346 576 384V128C576 92.652 547.348 64 512 64ZM32 128C32 110.355 46.355 96 64 96H96C96 131.297 67.297 160 32 160V128ZM64 416C46.355 416 32 401.645 32 384V352C67.297 352 96 380.703 96 416H64ZM544 384C544 401.645 529.645 416 512 416H480C480 380.703 508.703 352 544 352V384ZM544 320C491.062 320 448 363.062 448 416H128C128 363.062 84.938 320 32 320V192C84.938 192 128 148.938 128 96H448C448 148.938 491.062 192 544 192V320ZM544 160C508.703 160 480 131.297 480 96H512C529.645 96 544 110.355 544 128V160ZM288 144C235.062 144 192 194.25 192 256S235.062 368 288 368S384 317.75 384 256S340.938 144 288 144ZM288 336C252.703 336 224 300.109 224 256S252.703 176 288 176S352 211.891 352 256S323.297 336 288 336Z"/></svg>

<svg xmlns="http://www.w3.org/2000/svg" viewBox="0 0 576 512"><!--! Font Awesome Pro 6.4.0 by @fontawesome - https://fontawesome.com License - https://fontawesome.com/license (Commercial License) Copyright 2023 Fonticons, Inc. --><path d="M512 96c17.7 0 32 14.3 32 32v32c-35.3 0-64-28.7-64-64h32zM128 96H448c0 53 43 96 96 96V320c-53 0-96 43-96 96H128c0-53-43-96-96-96V192c53 0 96-43 96-96zM32 352c35.3 0 64 28.7 64 64H64c-17.7 0-32-14.3-32-32V352zm448 64c0-35.3 28.7-64 64-64v32c0 17.7-14.3 32-32 32H480zM96 96c0 35.3-28.7 64-64 64V128c0-17.7 14.3-32 32-32H96zM64 64C28.7 64 0 92.7 0 128V384c0 35.3 28.7 64 64 64H512c35.3 0 64-28.7 64-64V128c0-35.3-28.7-64-64-64H64zM256 208c0 8.8 7.2 16 16 16v64h-8c-8.8 0-16 7.2-16 16s7.2 16 16 16h24 24c8.8 0 16-7.2 16-16s-7.2-16-16-16h-8V208c0-8.8-7.2-16-16-16H272c-8.8 0-16 7.2-16 16zm-64 48a96 96 0 1 1 192 0 96 96 0 1 1 -192 0zm224 0a128 128 0 1 0 -256 0 128 128 0 1 0 256 0z"/></svg>
